svg/btnClean.svg

<?xml version="1.0" encoding="UTF-8" standalone="no"?>
<svg
   xmlns:dc="http://purl.org/dc/elements/1.1/"
   xmlns:cc="http://creativecommons.org/ns#"
   xmlns:rdf="http://www.w3.org/1999/02/22-rdf-syntax-ns#"
   xmlns:svg="http://www.w3.org/2000/svg"
   xmlns="http://www.w3.org/2000/svg"
   xmlns:sodipodi="http://sodipodi.sourceforge.net/DTD/sodipodi-0.dtd"
   xmlns:inkscape="http://www.inkscape.org/namespaces/inkscape"
   width="10mm"
   height="10mm"
   viewBox="0 0 10 9.9999996"
   version="1.1"
   id="svg8"
   inkscape:version="1.0 (4035a4fb49, 2020-05-01)"
   sodipodi:docname="btnClean.svg">
  <defs
     id="defs2">
    <inkscape:path-effect
       effect="spiro"
       id="path-effect939"
       is_visible="true"
       lpeversion="1" />
    <inkscape:path-effect
       effect="fillet_chamfer"
       id="path-effect911"
       is_visible="true"
       lpeversion="1"
       satellites_param="F,0,0,1,0,0,0,1 @ F,0,0,1,0,0,0,1 @ F,0,0,1,0,0,0,1 @ F,0,0,1,0,0,0,1 @ F,0,0,1,0,0,0,1 @ F,0,0,1,0,0,0,1 @ F,0,0,1,0,0,0,1 @ F,0,0,1,0,0,0,1 @ F,0,0,1,0,0,0,1 @ F,0,0,1,0,0,0,1 @ F,0,0,1,0,0,0,1 @ F,0,0,1,0,0,0,1 @ F,0,0,1,0,0,0,1 @ F,0,0,1,0,0,0,1 @ F,0,0,1,0,0,0,1 @ F,0,0,1,0,0,0,1 @ F,0,0,1,0,0,0,1 @ F,0,0,1,0,0,0,1"
       unit="px"
       method="auto"
       mode="F"
       radius="6"
       chamfer_steps="1"
       flexible="false"
       use_knot_distance="true"
       apply_no_radius="true"
       apply_with_radius="true"
       only_selected="false"
       hide_knots="false" />
  </defs>
  <sodipodi:namedview
     id="base"
     pagecolor="#ffffff"
     bordercolor="#666666"
     borderopacity="1.0"
     inkscape:pageopacity="0.0"
     inkscape:pageshadow="2"
     inkscape:zoom="3.959798"
     inkscape:cx="10.833898"
     inkscape:cy="6.184515"
     inkscape:document-units="mm"
     inkscape:current-layer="layer1"
     showgrid="false"
     fit-margin-top="0"
     fit-margin-left="0"
     fit-margin-right="0"
     fit-margin-bottom="0"
     inkscape:window-width="1920"
     inkscape:window-height="1024"
     inkscape:window-x="0"
     inkscape:window-y="0"
     inkscape:window-maximized="1"
     inkscape:document-rotation="0" />
  <metadata
     id="metadata5">
    <rdf:RDF>
      <cc:Work
         rdf:about="">
        <dc:format>image/svg+xml</dc:format>
        <dc:type
           rdf:resource="http://purl.org/dc/dcmitype/StillImage" />
        <dc:title />
      </cc:Work>
    </rdf:RDF>
  </metadata>
  <g
     inkscape:label="Capa 1"
     inkscape:groupmode="layer"
     id="layer1"
     transform="translate(-35.962811,-131.89706)">
    <circle
       style="fill:#fdd835;fill-opacity:1;stroke:none;stroke-width:1.963;stroke-linecap:round;stroke-linejoin:round;stroke-miterlimit:4;stroke-dasharray:none;stroke-opacity:1"
       id="path815"
       cx="40.962811"
       cy="136.89706"
       r="5" />
    <path
       id="rect913"
       style="fill:#feffff;fill-opacity:1;stroke:none;stroke-width:0.448808;stroke-linecap:round;stroke-linejoin:round;stroke-miterlimit:4;stroke-dasharray:none;stroke-opacity:1"
       d="M 29.373047 3.1699219 L 19.433594 14.5625 L 25.105469 19.511719 L 34.693359 8.5253906 A 18.897638 18.897638 0 0 0 29.373047 3.1699219 z M 18.681641 15.423828 L 16.658203 17.742188 L 22.332031 22.693359 L 24.355469 20.373047 L 18.681641 15.423828 z M 15.90625 18.603516 L 13.957031 20.837891 C 12.6257 22.363837 12.730579 24.391402 14.427734 25.902344 C 16.493756 27.74407 18.319722 27.291803 19.630859 25.789062 L 21.580078 23.554688 L 15.90625 18.603516 z "
       transform="matrix(0.26458333,0,0,0.26458333,35.962811,131.89706)" />
    <path
       style="fill:none;fill-opacity:1;stroke:#ffffff;stroke-width:0.1;stroke-linecap:round;stroke-linejoin:round;stroke-miterlimit:4;stroke-dasharray:none;stroke-opacity:1"
       d="m 37.698205,139.07445 h 6.529212"
       id="path937"
       inkscape:original-d="m 37.698205,139.07445 h 6.529212"
       inkscape:path-effect="#path-effect939" />
  </g>
</svg>

<svg width="10mm" height="10mm" version="1.1" viewBox="0 0 10 10" xmlns="http://www.w3.org/2000/svg">
	<g transform="translate(-35.963 -131.9)">
		<circle cx="40.963" cy="136.9" r="5" fill="#e3bd35"/>
		<path transform="matrix(.26458 0 0 .26458 35.963 131.9)" d="m29.373 3.1699-9.9395 11.393 5.6719 4.9492 9.5879-10.986a18.898 18.898 0 0 0-5.3203-5.3555zm-10.691 12.254-2.0234 2.3184 5.6738 4.9512 2.0234-2.3203-5.6738-4.9492zm-2.7754 3.1797-1.9492 2.2344c-1.3313 1.5259-1.2265 3.5535 0.4707 5.0645 2.066 1.8417 3.892 1.3895 5.2031-0.11328l1.9492-2.2344-5.6738-4.9512z" fill="#feffff"/>
		<path d="m37.698 139.07h6.5292" fill="none" stroke="#fff" stroke-linecap="round" stroke-linejoin="round" stroke-width=".1"/>
	</g>
</svg>
